X: 40209
T: Tinker's Frolic, The
R: reel
M: 4/4
K: Edorian
|:B~E3 ~B2AF|B~E3 A2FA|B~E3 BedB|1 AFDF ADFA:|2 AFDF ADFD||
|:~E3F D2FD|~E3F (3Bcd AF|EGFE DB, (3EFG|1 ADFG ADFD:|2 ADFG ADFA||

